X:462
T: IN SACHSENLAND LAG EINST EIN SCHLOSS
N: F0869
O: Europa, Mitteleuropa, Deutschland
R: erzaehlendes Volks - Lied, Ballade
M: 6/8
L: 1/16
K: G
D2 | G4G2B4B2 | d4d2B4
B2 | A3Bc2D3EF2 | A6G2z2
D2 | G4G2B4B2 | d4d2B4
B2 | A3Bc2D3EF2 | A6G2z2
D2 | A4A2A4A2 | c2B2A2G4
GA | A4A2A4A2 | c2B2A2G4
GA | B4B2B4G2 | E6c4
A2 | G4G2F3EF2 | A6G2z2
GA | B4B2B4G2 | E6c4
A2 | G4G2F3EF2 | A6G2z2

@@@ Tune index: 5893
